X:1
T: Szépen szól a péterlaki nagyharang
M:4/4
L:1/4
K:F
d d d d | e e e d | c c c2 |
e e e d | c c d d | A A A2 |
c c c d | A A A G | F F F2 |
A A A G | F F G G | D D D2 |

